X: 14
T: Old Willie Hunter
C: Ronald Cooper
S: http://homepages.ihug.co.nz/~dexy/music/shetland.abc
R: march
M: 4/4
L: 1/8
K: A
ed |\
"A"cA ~A2 EAcA | eaga ecAc | "Bm"dB ~B2 FBBc | dBba "E"gfed |
"A"cA ~A2 EAcA | eaga ecAc | "Bm"dBba "E"gfed | "A"cA"E"BG "A"A2 :|
|: (3efg |\
"A"aA ~A2 ecAc | eaga ecA[ac] | "Bm"bB ~B2 fdBc | dBba "E"gbeg |
[1 "A"aA ~A2 ecAc | eaga ecAc | "Bm"dBba "E"gfed | "A"cA"E"BG "A"A2 :|
[2 "A"acea "E"gBeg | "D"fAdf "A"eAce | "Bm"dBba "E"gfed | "A"cA"E"BG "A"A2 |]
